X: 4
T: The Banks Of Newfoundland
R: jig
M: 6/8
L: 1/8
K: Gmaj
B2G AGE|GBd g2e|ded B2A|BGE EGA|
B2G AGE|GBd g2e|ded B2A|BGF G3:|
B2g gfg|e2a aga|bge dBG|BdB AGA|
B2g gfg|e2a aga|bge dBA|AGF G3|
B2g gfg|e2a aga|bge dBG|BdB AGA|
B2G AGE|GBd g2e|ded B2A|BGF G3||


Tune 3172	Setting 3172

